images/dist/icons/shipping.svg

<svg width="114" height="115" viewBox="0 0 114 115" fill="none" xmlns="http://www.w3.org/2000/svg">
<g clip-path="url(#clip0)" filter="url(#filter0_d)">
<path d="M84.5 101.5H29.5C20.3865 101.5 13 94.1135 13 85V30C13 20.8865 20.3865 13.5 29.5 13.5H84.5C93.6135 13.5 101 20.8865 101 30V85C101 94.1135 93.6135 101.5 84.5 101.5Z" fill="#E3F8FA"/>
<path d="M44.4408 69.4156H38.9051L38.6851 70.5349C38.6108 70.9391 38.7208 71.3599 38.9793 71.6706C39.2351 71.9814 39.6393 72.1656 40.0436 72.1656H44.2428C44.1878 71.8714 44.1686 71.5606 44.1686 71.2499C44.1658 70.6091 44.2593 70.0041 44.4408 69.4156ZM64.0208 50.6799C63.7651 50.3499 63.3801 50.1656 62.9566 50.1656H43.7066C43.0466 50.1656 42.4773 50.6414 42.3508 51.2849L42.2243 51.9999H46.4593C48.2193 51.9999 49.6686 53.4491 49.6686 55.2091C49.6686 56.3834 49.0278 57.3899 48.0928 57.9591C49.0278 58.5284 49.6686 59.5349 49.6686 60.7091C49.6686 61.8834 49.0278 62.8899 48.0928 63.4591C48.6621 63.8084 49.1186 64.3199 49.3936 64.9442C49.7786 64.8699 50.1828 64.8341 50.5843 64.8341C54.1208 64.8341 57.0001 67.7106 57.0001 71.2499C57.0001 71.5606 56.9808 71.8741 56.9258 72.1656H58.8316C59.4723 72.1656 60.0416 71.7064 60.1708 71.0849L64.2958 51.8349C64.3893 51.4306 64.2958 51.0099 64.0208 50.6799Z" fill="#26C6DA"/>
<path d="M70.2907 55.6656H66.3665C65.7065 55.6656 65.1565 56.1249 65.0107 56.7464L62.0765 70.4964C61.9857 70.9006 62.0765 71.3214 62.3515 71.6514C62.6072 71.9814 62.9922 72.1656 63.4157 72.1656H64.4057C64.3507 71.8714 64.3315 71.5606 64.3315 71.2499C64.3315 67.7106 67.2107 64.8341 70.7472 64.8341C74.2837 64.8341 77.163 67.7134 77.163 71.2499C77.163 71.4506 77.163 71.6349 77.1272 71.8356C77.3665 71.6514 77.5315 71.3956 77.5865 71.0849L78.9615 64.6691C78.9807 64.5757 79 64.4656 79 64.3749C79 59.5706 75.095 55.6656 70.2907 55.6656Z" fill="#26C6DA"/>
<path d="M46.459 56.5844H40.0405C39.2815 56.5844 38.6655 55.9684 38.6655 55.2094C38.6655 54.4504 39.2815 53.8344 40.0405 53.8344H46.4563C47.2153 53.8344 47.8313 54.4504 47.8313 55.2094C47.8313 55.9684 47.218 56.5844 46.459 56.5844Z" fill="#8CE1EB"/>
<path d="M46.4595 62.0844H38.2095C37.4505 62.0844 36.8345 61.4684 36.8345 60.7094C36.8345 59.9504 37.4505 59.3344 38.2095 59.3344H46.4595C47.2185 59.3344 47.8345 59.9504 47.8345 60.7094C47.8345 61.4684 47.2185 62.0844 46.4595 62.0844Z" fill="#8CE1EB"/>
<path d="M46.4593 67.5844H36.375C35.616 67.5844 35 66.9684 35 66.2094C35 65.4504 35.616 64.8344 36.375 64.8344H46.4593C47.2183 64.8344 47.8343 65.4504 47.8343 66.2094C47.8343 66.9684 47.2183 67.5844 46.4593 67.5844Z" fill="#8CE1EB"/>
<path d="M70.7498 75.8344C68.2225 75.8344 66.1655 73.7801 66.1655 71.2501C66.1655 68.7201 68.2225 66.6659 70.7498 66.6659C73.277 66.6659 75.334 68.7201 75.334 71.2501C75.334 73.7801 73.277 75.8344 70.7498 75.8344Z" fill="#8CE1EB"/>
<path d="M50.5842 75.8344C48.057 75.8344 46 73.7774 46 71.2501C46 68.7229 48.057 66.6659 50.5842 66.6659C53.1115 66.6659 55.1685 68.7201 55.1685 71.2501C55.1685 73.7801 53.1115 75.8344 50.5842 75.8344Z" fill="#8CE1EB"/>
</g>
<defs>
<filter id="filter0_d" x="0" y="0.5" width="114" height="114" filterUnits="userSpaceOnUse" color-interpolation-filters="sRGB">
<feFlood flood-opacity="0" result="BackgroundImageFix"/>
<feColorMatrix in="SourceAlpha" type="matrix" values="0 0 0 0 0 0 0 0 0 0 0 0 0 0 0 0 0 0 127 0"/>
<feMorphology radius="12" operator="erode" in="SourceAlpha" result="effect1_dropShadow"/>
<feOffset/>
<feGaussianBlur stdDeviation="12.5"/>
<feColorMatrix type="matrix" values="0 0 0 0 0.14902 0 0 0 0 0.776471 0 0 0 0 0.854902 0 0 0 0.15 0"/>
<feBlend mode="normal" in2="BackgroundImageFix" result="effect1_dropShadow"/>
<feBlend mode="normal" in="SourceGraphic" in2="effect1_dropShadow" result="shape"/>
</filter>
<clipPath id="clip0">
<rect width="88" height="88" fill="white" transform="translate(13 13.5)"/>
</clipPath>
</defs>
</svg>

<svg width="114" height="115" fill="none" xmlns="http://www.w3.org/2000/svg"><g clip-path="url(#clip0)" filter="url(#filter0_d)"><path d="M84.5 101.5h-55C20.387 101.5 13 94.114 13 85V30c0-9.113 7.387-16.5 16.5-16.5h55c9.114 0 16.5 7.387 16.5 16.5v55c0 9.114-7.386 16.5-16.5 16.5z" fill="#E3F8FA"/><path d="M44.44 69.416h-5.535l-.22 1.119c-.074.404.036.825.294 1.136.256.31.66.495 1.065.495h4.199a5.02 5.02 0 01-.074-.916c-.003-.64.09-1.246.272-1.834zM64.02 50.68a1.327 1.327 0 00-1.063-.514h-19.25c-.66 0-1.23.475-1.356 1.119l-.127.715h4.235c1.76 0 3.21 1.45 3.21 3.21 0 1.173-.641 2.18-1.576 2.75.935.568 1.576 1.575 1.576 2.75 0 1.173-.641 2.18-1.576 2.75.57.348 1.026.86 1.3 1.484A6.423 6.423 0 0157 71.25a5 5 0 01-.074.916h1.906c.64 0 1.21-.46 1.339-1.081l4.125-19.25c.093-.404 0-.825-.275-1.155zm6.27 4.986h-3.924c-.66 0-1.21.459-1.355 1.08l-2.934 13.75c-.091.405 0 .825.275 1.155.255.33.64.515 1.064.515h.99a5.02 5.02 0 01-.075-.916c0-3.54 2.88-6.416 6.416-6.416a6.425 6.425 0 016.416 6.416c0 .2 0 .385-.036.586.24-.185.404-.44.46-.751l1.374-6.416c.02-.093.039-.203.039-.294 0-4.804-3.905-8.71-8.71-8.71z" fill="#26C6DA"/><path d="M46.459 56.584H40.04a1.376 1.376 0 010-2.75h6.416a1.376 1.376 0 01.003 2.75zm.001 5.5h-8.25a1.376 1.376 0 010-2.75h8.25a1.376 1.376 0 010 2.75zm0 5.5H36.374a1.376 1.376 0 010-2.75h10.084a1.376 1.376 0 010 2.75zm24.29 8.25a4.588 4.588 0 01-4.585-4.584 4.588 4.588 0 014.585-4.584 4.588 4.588 0 014.584 4.584 4.588 4.588 0 01-4.584 4.584zm-20.166 0A4.59 4.59 0 0146 71.25a4.59 4.59 0 014.584-4.584 4.588 4.588 0 014.584 4.584 4.588 4.588 0 01-4.584 4.584z" fill="#8CE1EB"/></g><defs><clipPath id="clip0"><path fill="#fff" transform="translate(13 13.5)" d="M0 0h88v88H0z"/></clipPath><filter id="filter0_d" x="0" y=".5" width="114" height="114" filterUnits="userSpaceOnUse" color-interpolation-filters="sRGB"><feFlood flood-opacity="0" result="BackgroundImageFix"/><feColorMatrix in="SourceAlpha" values="0 0 0 0 0 0 0 0 0 0 0 0 0 0 0 0 0 0 127 0"/><feMorphology radius="12" in="SourceAlpha" result="effect1_dropShadow"/><feOffset/><feGaussianBlur stdDeviation="12.5"/><feColorMatrix values="0 0 0 0 0.14902 0 0 0 0 0.776471 0 0 0 0 0.854902 0 0 0 0.15 0"/><feBlend in2="BackgroundImageFix" result="effect1_dropShadow"/><feBlend in="SourceGraphic" in2="effect1_dropShadow" result="shape"/></filter></defs></svg>
